packages/icons/src/svgs/logo-full.svg

<svg width="180px" height="24px" viewBox="0 0 180 24" version="1.1" xmlns="http://www.w3.org/2000/svg" xmlns:xlink="http://www.w3.org/1999/xlink">
            <path d="M48.0448955,8.07830814 L43.9216409,8.07830814 L43.9216409,11.0517241 L47.1525395,11.0517241 C47.8662477,11.0517241 48.242976,11.4286733 48.242976,12.1421607 L48.242976,12.9349244 C48.242976,13.6486326 47.8662477,14.0251401 47.1525395,14.0251401 L43.9216409,14.0251401 L43.9216409,18.1881434 C43.9216409,18.9018515 43.5449125,19.2783591 42.8314252,19.2783591 L41.5429081,19.2783591 C40.8291999,19.2783591 40.4526924,18.9018515 40.4526924,18.1881434 L40.4526924,6.19510786 C40.4526924,5.48162052 40.8291999,5.10489214 41.5429081,5.10489214 L48.0448955,5.10489214 C48.7583829,5.10489214 49.1348904,5.48162052 49.1348904,6.19510786 L49.1348904,6.98809241 C49.1348904,7.70180058 48.7583829,8.07830814 48.0448955,8.07830814 Z M53.5555971,12.1024121 C53.5555971,8.03855954 56.5685409,4.86684219 60.9691524,4.86684219 C65.3699847,4.86684219 68.3829285,8.03855954 68.3829285,12.1024121 C68.3829285,16.2651945 65.3699847,19.5161882 60.9691524,19.5161882 C56.5685409,19.5161882 53.5555971,16.2651945 53.5555971,12.1024121 Z M64.794955,12.1024121 C64.794955,9.78308137 63.2089859,8.03855954 60.9691524,8.03855954 C58.7293188,8.03855954 57.1433498,9.78308137 57.1433498,12.1024121 C57.1433498,14.5208935 58.7293188,16.3444709 60.9691524,16.3444709 C63.2089859,16.3444709 64.794955,14.5208935 64.794955,12.1024121 Z M78.096161,12.677221 C77.5412264,11.745558 76.9067946,10.2589604 76.9067946,10.2589604 L76.8672669,10.2589604 C76.8672669,10.2589604 77.0258196,11.7853066 77.0258196,12.677221 L77.0258196,18.1881434 C77.0258196,18.9018515 76.6490912,19.2783591 75.9356039,19.2783591 L74.6470868,19.2783591 C73.9333786,19.2783591 73.5568711,18.9018515 73.5568711,18.1881434 L73.5568711,6.19510786 C73.5568711,5.48162052 73.9333786,5.10489214 74.6470868,5.10489214 L76.1933073,5.10489214 C76.807644,5.10489214 77.2042466,5.32284695 77.5014778,5.83869543 L80.9903007,11.7256837 C81.5454561,12.6575675 82.1798879,14.1443859 82.1798879,14.1443859 L82.2194157,14.1443859 C82.2194157,14.1443859 82.0608629,12.6178189 82.0608629,11.7256837 L82.0608629,6.19510786 C82.0608629,5.48162052 82.4375913,5.10489214 83.1510786,5.10489214 L84.4395957,5.10489214 C85.1533039,5.10489214 85.5298114,5.48162052 85.5298114,6.19510786 L85.5298114,18.1881434 C85.5298114,18.9018515 85.1533039,19.2783591 84.4395957,19.2783591 L82.8935961,19.2783591 C82.298692,19.2783591 81.9023102,19.0604043 81.605079,18.5449975 L78.096161,12.677221 Z M93.3198743,5.10489214 L97.2647019,5.10489214 C101.724936,5.10489214 104.579548,7.70180058 104.579548,12.1618142 C104.579548,16.6220486 101.724936,19.2783591 97.2647019,19.2783591 L93.3198743,19.2783591 C92.6061661,19.2783591 92.2298794,18.9018515 92.2298794,18.1881434 L92.2298794,6.19510786 C92.2298794,5.48162052 92.6061661,5.10489214 93.3198743,5.10489214 Z M100.991354,12.1618142 C100.991354,9.46597588 99.4650076,8.07830814 97.1260234,8.07830814 L95.6988279,8.07830814 L95.6988279,16.3047223 L97.1260234,16.3047223 C99.5246305,16.3047223 100.991354,14.8777476 100.991354,12.1618142 Z M117.385222,8.07830814 L113.261967,8.07830814 L113.261967,11.0517241 L116.493086,11.0517241 C117.206574,11.0517241 117.583302,11.4286733 117.583302,12.1421607 L117.583302,12.9349244 C117.583302,13.6486326 117.206574,14.0251401 116.493086,14.0251401 L113.261967,14.0251401 L113.261967,18.1881434 C113.261967,18.9018515 112.885018,19.2783591 112.171751,19.2783591 L110.883234,19.2783591 C110.169526,19.2783591 109.793019,18.9018515 109.793019,18.1881434 L109.793019,6.19510786 C109.793019,5.48162052 110.169526,5.10489214 110.883234,5.10489214 L117.385222,5.10489214 C118.098709,5.10489214 118.475217,5.48162052 118.475217,6.19510786 L118.475217,6.98809241 C118.475217,7.70180058 118.098709,8.07830814 117.385222,8.07830814 Z M122.499321,12.1024121 C122.499321,8.03855954 125.512485,4.86684219 129.913097,4.86684219 C134.313929,4.86684219 137.326873,8.03855954 137.326873,12.1024121 C137.326873,16.2651945 134.313929,19.5161882 129.913097,19.5161882 C125.512485,19.5161882 122.499321,16.2651945 122.499321,12.1024121 Z M133.738899,12.1024121 C133.738899,9.78308137 132.153151,8.03855954 129.913097,8.03855954 C127.673263,8.03855954 126.087294,9.78308137 126.087294,12.1024121 C126.087294,14.5208935 127.673263,16.3444709 129.913097,16.3444709 C132.153151,16.3444709 133.738899,14.5208935 133.738899,12.1024121 Z M144.879548,5.10489214 C145.593036,5.10489214 145.969764,5.48162052 145.969764,6.19510786 L145.969764,16.3047223 L150.667827,16.3047223 C151.381536,16.3047223 151.758043,16.6816715 151.758043,17.3953797 L151.758043,18.1881434 C151.758043,18.9018515 151.381536,19.2783591 150.667827,19.2783591 L143.591031,19.2783591 C142.877323,19.2783591 142.500815,18.9018515 142.500815,18.1881434 L142.500815,6.19510786 C142.500815,5.48162052 142.877323,5.10489214 143.591031,5.10489214 L144.879548,5.10489214 Z M157.446951,5.10489214 L158.735468,5.10489214 C159.448955,5.10489214 159.825684,5.48162052 159.825684,6.19510786 L159.825684,18.1881434 C159.825684,18.9018515 159.448955,19.2783591 158.735468,19.2783591 L157.446951,19.2783591 C156.733243,19.2783591 156.356735,18.9018515 156.356735,18.1881434 L156.356735,6.19510786 C156.356735,5.48162052 156.733243,5.10489214 157.446951,5.10489214 Z M164.999185,12.1024121 C164.999185,8.03855954 168.012349,4.86684219 172.412961,4.86684219 C176.813793,4.86684219 179.826958,8.03855954 179.826958,12.1024121 C179.826958,16.2651945 176.813793,19.5161882 172.412961,19.5161882 C168.012349,19.5161882 164.999185,16.2651945 164.999185,12.1024121 Z M176.238763,12.1024121 C176.238763,9.78308137 174.653015,8.03855954 172.412961,8.03855954 C170.173127,8.03855954 168.587158,9.78308137 168.587158,12.1024121 C168.587158,14.5208935 170.173127,16.3444709 172.412961,16.3444709 C174.653015,16.3444709 176.238763,14.5208935 176.238763,12.1024121 Z" id="Combined-Shape"></path>
            <path d="M17.4874403,6.40945236 L17.4866163,4.0920618 C17.4866163,2.80121202 18.5368481,1.75098026 19.8275948,1.75098026 C21.1302901,1.75098026 22.1901013,2.79410472 22.1901013,4.07630215 C22.1901013,5.36282575 21.1434747,6.40945236 19.8569511,6.40945236 L17.4874403,6.40945236 Z M13.4571914,13.6898987 L15.8298953,13.6898987 C15.774788,14.2521991 15.5270627,14.8053322 15.1313202,15.2368172 C14.6798524,15.7291777 14.1008652,16.000388 13.5008652,16.000388 L7.99816996,16.000388 L7.9968309,12.0379159 L10.4343245,12.0379159 C10.8893974,12.0379159 11.2583588,11.6689545 11.2583588,11.2138815 C11.2583588,10.7588086 10.8893974,10.3898472 10.4343245,10.3898472 L7.99631588,10.3898472 L7.99631588,10.3153751 C7.99631588,9.04924635 9.02460773,8.05752103 10.3372944,8.05752103 L15.8398867,8.05752103 L15.8412258,12.04183 L13.4571914,12.04183 C13.0021185,12.04183 12.6331571,12.4107914 12.6331571,12.8658644 C12.6331571,13.3209373 13.0021185,13.6898987 13.4571914,13.6898987 L13.4571914,13.6898987 Z M4.0103588,22.3069288 C2.70776652,22.3069288 1.64805837,21.2638043 1.64805837,19.9817099 C1.64805837,18.6950833 2.69468498,17.6484567 3.98120858,17.6484567 L6.35061631,17.6484567 L6.35133734,19.9658472 C6.35133734,21.2568 5.30120858,22.3069288 4.0103588,22.3069288 L4.0103588,22.3069288 Z M23.83817,4.07630215 C23.83817,1.88540086 22.038994,0.102911588 19.8275948,0.102911588 C17.6280412,0.102911588 15.8385476,1.89240515 15.8385476,4.09237082 L15.8393717,6.40945236 L10.3372944,6.40945236 C8.10045322,6.40945236 6.34824721,8.12509185 6.34824721,10.3156841 L6.34824721,10.3898472 L4.14972361,10.3898472 C3.69465064,10.3898472 3.32568927,10.7588086 3.32568927,11.2138815 C3.32568927,11.6689545 3.69465064,12.0379159 4.14972361,12.0379159 L6.34876223,12.0379159 L6.35010129,16.000388 L3.98120858,16.000388 C1.78598112,16.000388 -1.03004277e-05,17.7863794 -1.03004277e-05,19.9817099 C-1.03004277e-05,22.1725082 1.79906266,23.9549974 4.0103588,23.9549974 C6.20991245,23.9549974 7.99940601,22.1655039 7.99940601,19.9655382 L7.99868498,17.6484567 L13.5007622,17.6485597 C15.5871142,17.6485597 17.3604361,15.8592721 17.4824961,13.6898987 L19.7416893,13.6898987 C20.1968652,13.6898987 20.5657236,13.3209373 20.5657236,12.8658644 C20.5657236,12.4107914 20.1968652,12.04183 19.7416893,12.04183 L17.4892944,12.04183 L17.4879554,8.05752103 L19.8569511,8.05752103 C22.0521785,8.05752103 23.83817,6.27152961 23.83817,4.07630215 L23.83817,4.07630215 Z" id="Fill-1"></path>
</svg>

<?xml version="1.0" encoding="utf-8"?>
<!-- Generator: Adobe Illustrator 25.0.1, SVG Export Plug-In . SVG Version: 6.00 Build 0)  -->
<svg version="1.1" id="Layer_1" xmlns="http://www.w3.org/2000/svg" xmlns:xlink="http://www.w3.org/1999/xlink" x="0px" y="0px"
	 viewBox="0 0 180 24" style="enable-background:new 0 0 180 24;" xml:space="preserve">
<path d="M48,8.1h-4.1v3h3.2c0.7,0,1.1,0.4,1.1,1.1v0.8c0,0.7-0.4,1.1-1.1,1.1h-3.2v4.2c0,0.7-0.4,1.1-1.1,1.1h-1.3
	c-0.7,0-1.1-0.4-1.1-1.1v-12c0-0.7,0.4-1.1,1.1-1.1H48c0.7,0,1.1,0.4,1.1,1.1V7C49.1,7.7,48.8,8.1,48,8.1z M53.6,12.1
	c0-4.1,3-7.2,7.4-7.2c4.4,0,7.4,3.2,7.4,7.2c0,4.2-3,7.4-7.4,7.4C56.6,19.5,53.6,16.3,53.6,12.1z M64.8,12.1C64.8,9.8,63.2,8,61,8
	c-2.2,0-3.8,1.7-3.8,4.1c0,2.4,1.6,4.2,3.8,4.2C63.2,16.3,64.8,14.5,64.8,12.1z M78.1,12.7c-0.6-0.9-1.2-2.4-1.2-2.4h0
	c0,0,0.2,1.5,0.2,2.4v5.5c0,0.7-0.4,1.1-1.1,1.1h-1.3c-0.7,0-1.1-0.4-1.1-1.1v-12c0-0.7,0.4-1.1,1.1-1.1h1.5c0.6,0,1,0.2,1.3,0.7
	l3.5,5.9c0.6,0.9,1.2,2.4,1.2,2.4h0c0,0-0.2-1.5-0.2-2.4V6.2c0-0.7,0.4-1.1,1.1-1.1h1.3c0.7,0,1.1,0.4,1.1,1.1v12
	c0,0.7-0.4,1.1-1.1,1.1h-1.5c-0.6,0-1-0.2-1.3-0.7L78.1,12.7z M93.3,5.1h3.9c4.5,0,7.3,2.6,7.3,7.1c0,4.5-2.9,7.1-7.3,7.1h-3.9
	c-0.7,0-1.1-0.4-1.1-1.1v-12C92.2,5.5,92.6,5.1,93.3,5.1z M101,12.2c0-2.7-1.5-4.1-3.9-4.1h-1.4v8.2h1.4
	C99.5,16.3,101,14.9,101,12.2z M117.4,8.1h-4.1v3h3.2c0.7,0,1.1,0.4,1.1,1.1v0.8c0,0.7-0.4,1.1-1.1,1.1h-3.2v4.2
	c0,0.7-0.4,1.1-1.1,1.1h-1.3c-0.7,0-1.1-0.4-1.1-1.1v-12c0-0.7,0.4-1.1,1.1-1.1h6.5c0.7,0,1.1,0.4,1.1,1.1V7
	C118.5,7.7,118.1,8.1,117.4,8.1z M122.5,12.1c0-4.1,3-7.2,7.4-7.2c4.4,0,7.4,3.2,7.4,7.2c0,4.2-3,7.4-7.4,7.4
	C125.5,19.5,122.5,16.3,122.5,12.1z M133.7,12.1c0-2.3-1.6-4.1-3.8-4.1c-2.2,0-3.8,1.7-3.8,4.1c0,2.4,1.6,4.2,3.8,4.2
	C132.2,16.3,133.7,14.5,133.7,12.1z M144.9,5.1c0.7,0,1.1,0.4,1.1,1.1v10.1h4.7c0.7,0,1.1,0.4,1.1,1.1v0.8c0,0.7-0.4,1.1-1.1,1.1
	h-7.1c-0.7,0-1.1-0.4-1.1-1.1v-12c0-0.7,0.4-1.1,1.1-1.1H144.9z M157.4,5.1h1.3c0.7,0,1.1,0.4,1.1,1.1v12c0,0.7-0.4,1.1-1.1,1.1
	h-1.3c-0.7,0-1.1-0.4-1.1-1.1v-12C156.4,5.5,156.7,5.1,157.4,5.1z M165,12.1c0-4.1,3-7.2,7.4-7.2c4.4,0,7.4,3.2,7.4,7.2
	c0,4.2-3,7.4-7.4,7.4C168,19.5,165,16.3,165,12.1z M176.2,12.1c0-2.3-1.6-4.1-3.8-4.1c-2.2,0-3.8,1.7-3.8,4.1c0,2.4,1.6,4.2,3.8,4.2
	C174.7,16.3,176.2,14.5,176.2,12.1z M17.5,6.4l0-2.3c0-1.3,1.1-2.3,2.3-2.3c1.3,0,2.4,1,2.4,2.3c0,1.3-1,2.3-2.3,2.3H17.5z
	 M13.5,13.7h2.4c-0.1,0.6-0.3,1.1-0.7,1.5c-0.5,0.5-1,0.8-1.6,0.8H8l0-4h2.4c0.5,0,0.8-0.4,0.8-0.8s-0.4-0.8-0.8-0.8H8v-0.1
	C8,9,9,8.1,10.3,8.1h5.5l0,4h-2.4c-0.5,0-0.8,0.4-0.8,0.8C12.6,13.3,13,13.7,13.5,13.7L13.5,13.7z M4,22.3c-1.3,0-2.4-1-2.4-2.3
	c0-1.3,1-2.3,2.3-2.3h2.4l0,2.3C6.4,21.3,5.3,22.3,4,22.3L4,22.3z M23.8,4.1c0-2.2-1.8-4-4-4c-2.2,0-4,1.8-4,4l0,2.3h-5.5
	c-2.2,0-4,1.7-4,3.9v0.1H4.1c-0.5,0-0.8,0.4-0.8,0.8S3.7,12,4.1,12h2.2l0,4H4c-2.2,0-4,1.8-4,4c0,2.2,1.8,4,4,4c2.2,0,4-1.8,4-4
	l0-2.3l5.5,0c2.1,0,3.9-1.8,4-4h2.3c0.5,0,0.8-0.4,0.8-0.8c0-0.5-0.4-0.8-0.8-0.8h-2.3l0-4h2.4C22.1,8.1,23.8,6.3,23.8,4.1L23.8,4.1
	z"/>
</svg>
